assets/img/arrow-down-2.svg

<svg width="10" height="6" viewBox="0 0 10 6" fill="none" xmlns="http://www.w3.org/2000/svg">
<path d="M0.150665 0.163933C0.33329 -0.0347736 0.619067 -0.0528378 0.820447 0.10974L0.878141 0.163933L5 4.64894L9.12186 0.163933C9.30448 -0.0347736 9.59026 -0.0528378 9.79164 0.10974L9.84933 0.163933C10.032 0.362639 10.0486 0.673582 9.89914 0.892695L9.84933 0.95547L5.36374 5.83607C5.18111 6.03477 4.89534 6.05284 4.69396 5.89026L4.63626 5.83607L0.150665 0.95547C-0.0502217 0.736893 -0.0502217 0.38251 0.150665 0.163933Z" fill="#9994AA"/>
</svg>

<svg xmlns="http://www.w3.org/2000/svg" width="10" height="6" fill="none"><path fill="#9994AA" d="M.15.164A.484.484 0 0 1 .82.11l.058.054L5 4.649 9.122.164a.484.484 0 0 1 .67-.054l.057.054c.183.199.2.51.05.729l-.05.062-4.485 4.881a.484.484 0 0 1-.67.054l-.058-.054L.151.956a.595.595 0 0 1 0-.792"/></svg>
